X:1
T:Partition sans titre
C:Compositeur / Arrangeur
L:1/8
M:4/4
I:linebreak $
K:D
V:1 treble nm="Violon" snm="Vln."
V:1
"D" F2 FG FEDE | FAAB AFED |"G" d2 eg fdec |"D" dBAG"G" BEED |"D" F2 FG FEDE | FAAB"A" AFED | %6
"D" d2 eg fd"A"ec |1"D" dBAG FDDE :|2"D" dBAG FDFA |:"D" d2 AG FDFA | dfaf"G" gfeg | %11
"D" fedf"A" eAcA |"D" dfed cA A2 |"G" BAGB"D" ADFD | dfaf"G" gfed | Bdce"D" dBAG |1 FGEF D2 FA :|2 %17
 FGEF D2 DE |] %18
